X:1
T:Title
%%score { 1 | 2 }
L:1/8
Q:1/4=100
M:3/4
K:C
V:1 treble nm="Grand Piano"
V:2 bass 
V:1
 E2 F2 E2 | [EA]2 [EG]2 E2 | E2 F2 E2 | [EA]2 [EG]4 | [EG]2 [E^F]2 [EG]2 | G2 ^F2 G2 | %6
w: Reginald~Geoffrey * *||||||
 [^FA]2 [FB]2 [FA]2 | G4 z2 | G2 A2 B2 | d2 [Gc]2 G2 | [Gd]2 [CGc]2 [CG]2 | [DGc]2 [DGB]4 | %12
w: ||||||
 [D^FA]2 [DGB]2 [DFc]2 | [DGd]2 [DGB]2 [B,DG]2 | [A,CE]2 [CEA]2 [CD^F]2 | [B,DG]4 z2 | c4 BA | %17
w: |||||
 E4 EE | E2 F2 E2 | A6 | c4 BA | E4 EE | E2 F2 E2 | A6 | G2 A2 B2 | d2 c2 G2 | d2 c2 B2 | A6 | %28
w: |||||||||||
 A2 B2 c2 | e3 c A2 | G2 G2 G2 | [EG]6 |] %32
w: ||||
V:2
 [C,G,C]2 [C,A,C]2 [C,G,C]2 | [C,C]2 [C,C]2 [C,G,C]2 | [C,G,C]2 [C,A,C]2 [C,G,C]2 | [C,C]2 [C,C]4 | %4
 [^C,_B,]2 [C,B,]2 [C,B,]2 | [D,B,D]2 [D,B,D]2 [D,B,D]2 | [D,C]2 [D,D]2 [D,C]2 | [G,B,]4 z2 | %8
 [F,B,D]2 [F,A,D]2 [F,G,D]2 | [E,G,E]2 [E,C]2 [E,C]2 | [E,G,]2 E,2 E,2 | D,2 D,4 | C,2 B,,2 A,,2 | %13
 B,,2 B,,2 B,,2 | C,2 C,2 D,2 | G,4 z2 | C4 B,A, | E,4 [E,A,C][E,A,C] | %18
 [^G,B,D]2 [G,B,D]2 [G,B,D]2 | [A,C]6 | C4[K:bass] B,A, | E,4 [E,A,C][E,A,C] | %22
 [^G,B,D]2 [G,B,D]2 [G,B,D]2 | [A,C]6 | [F,B,D]2 [F,A,D]2 [F,G,D]2 | [E,G,E]2 [E,G,E]2 [E,CE]2 | %26
 [E,^G,E]2 [E,G,E]2 [E,G,D]2 | [F,A,C]6 | [^F,C_E]2 [F,B,E]2 [F,A,E]2 | [G,CE]3 [G,EG] [G,CF]2 | %30
 [G,CE]2 [G,A,C]2[K:bass] [G,B,D]2 | [C,C]6 |] %32

